X:13751
T:Quadrils (5). TLY.074
M:2/4
L:1/16
S:Wm.Tildesley,Swinton,Lancs.1860s.
R:Quadrille
O:England.
A:Lancashire.
N:DC marked at end of B abd C music (not in Tillasley's hand
H:1860.
Z:vmp.Taz Tarry.
K:G
d2dd d2dd| d2dd d2g2| G2B2 e2d2| d2d2 A4| c2cc e2ee| c2cc A2AA|!
 F2e2d2F2| A4 G2z2:||B4 c2^c2| d2g2B2d2| A2e2 d2F2| G2A2B2c2|!
 B4 c2^c2| d2e2f2g2| F2e2d2F2| A4 G2 z2||B2BB B2BB| B2BB B2e2|!
 ^d2e2a2g2| g2b2 B4|B2BB B2BB| B2BB B2g2| f2e2 ^def=d|f4e2 z2|]
